static/logos/1password-wordmark-color.svg

<svg width="100" height="20" viewBox="0 0 100 20" fill="none" xmlns="http://www.w3.org/2000/svg">
<g clip-path="url(#clip0_1_3661)">
<path fill-rule="evenodd" clip-rule="evenodd" d="M5.54077 2.97147V13.5871C5.54077 13.9188 5.56157 13.9809 5.87354 14.0014L7.57781 14.1467V15.7846H0.282367V14.147L2.06955 14.0017C2.36072 13.9809 2.40231 13.898 2.40231 13.5871V6.42845C2.40231 6.1313 2.17781 6.18059 0.615417 6.70737L0.0390625 5.00737L3.60972 2.97147H5.54077ZM12.4297 3.03557H13.6564C15.1317 3.03557 16.3582 3.38771 16.3582 5.37803C16.3582 7.72048 14.8411 8.0313 13.4693 8.0313H12.4297V3.03557ZM13.947 10.2492H12.4297V13.5663C12.4297 13.8983 12.4507 13.9396 12.7627 13.9809L15.7348 14.1467V15.7843H7.58693V14.1467L8.89633 14.0014C9.18693 13.9604 9.22909 13.8983 9.22909 13.5871V2.99426C9.22909 2.68344 9.18721 2.60025 8.89633 2.57946L7.58693 2.43444V0.776036H14.6331C18.4787 0.776036 19.6422 2.80766 19.6422 5.19142C19.6422 8.79825 17.4601 10.2495 13.947 10.2495V10.2492ZM25.5895 13.0484C25.1117 13.4005 24.4049 13.7948 23.698 13.7948C23.0123 13.7948 22.5134 13.4837 22.5134 12.6544C22.5134 11.8253 22.9499 11.5142 24.1758 11.4316L25.5895 11.3279V13.0487V13.0484ZM35.1445 9.08914C36.7864 9.46207 38.6365 10.0427 38.6365 12.4681C38.6365 14.9968 36.5789 16.0336 33.9391 16.0336C32.2297 16.0336 30.5584 15.6279 29.9755 15.3658V15.7846H26.1507L25.9428 14.6652L25.8388 14.6447C25.049 15.4116 24.0097 16.0336 22.3468 16.0336C19.7282 16.0336 19.312 14.251 19.312 12.9652C19.312 10.8926 20.6012 9.93899 23.1992 9.77318L25.5895 9.60737V8.4672C25.5895 7.49284 25.4858 6.82959 24.1966 6.82959C23.1995 6.82959 22.6795 6.97461 22.6795 8.21848L19.7485 7.96948C19.7485 5.17119 22.3054 4.77689 24.2177 4.77689C27.3772 4.77689 28.645 5.62731 28.645 8.52931V13.5666C28.645 13.8983 28.6658 13.9398 28.9775 13.9812L29.8234 14.1216V12.2812L32.0473 12.4473L32.2553 13.6287C32.2758 13.8153 32.318 13.8983 32.5049 13.9396C32.7542 14.0228 33.3154 14.147 34.1054 14.147C35.2069 14.147 35.8302 13.8364 35.8302 13.0692C35.8302 12.2401 34.9989 11.9911 33.9391 11.8045C32.1932 11.4937 29.9066 11.1208 29.9066 8.40509C29.9066 5.83444 32.1097 4.77689 34.5 4.77689C36.1419 4.77689 37.7425 5.15039 38.3248 5.37803V8.38401L36.1006 8.23928L35.8926 7.16093C35.8721 6.99512 35.8302 6.9125 35.6852 6.8709C35.4148 6.78828 34.916 6.70509 34.3547 6.70509C33.3154 6.70509 32.7334 7.09882 32.7334 7.76207C32.7334 8.61221 33.8767 8.79854 35.1445 9.08914ZM95.5499 12.696C94.9886 13.1729 94.2194 13.5874 93.5129 13.5874C92.2029 13.5874 91.6214 12.4678 91.6214 10.4572C91.6214 8.61221 92.224 7.18173 93.7624 7.18173C94.3647 7.18173 95.0302 7.45124 95.5499 7.80395V12.696ZM99 14.002L99.9975 14.1473V15.7849H96.1314L95.924 14.6239L95.7784 14.6028C94.9054 15.453 93.8869 16.0333 92.3695 16.0333C89.9171 16.0333 88.3374 14.4786 88.3374 10.5193C88.3374 6.35267 90.4362 4.77717 92.7436 4.77717C93.9493 4.77717 94.8844 5.1917 95.6747 5.77233V2.62105C95.6747 2.41364 95.5912 2.26863 95.4043 2.20652L94.261 1.8125L94.4895 0.133301H98.6676V13.6077C98.6676 13.9188 98.6883 13.9604 99 14.0017V14.002ZM63.998 6.80851C63.7074 6.84982 63.5827 6.95381 63.4995 7.22304L60.9431 15.7843H57.6584L56.0374 8.84042H55.9129L54.2707 15.7846H50.5291L47.91 7.20281C47.8274 6.95381 47.7228 6.91221 47.4735 6.8501L47.2713 6.80708V8.38401L45.0473 8.23928L44.8393 7.16093C44.8188 6.99512 44.777 6.9125 44.6319 6.8709C44.3613 6.78828 43.8627 6.70509 43.3015 6.70509C42.2621 6.70509 41.6798 7.09882 41.6798 7.76207C41.6798 8.61221 42.8234 8.79911 44.0912 9.08914C45.7331 9.46207 47.5832 10.0427 47.5832 12.4681C47.5832 14.9971 45.5257 16.0336 42.8855 16.0336C40.994 16.0336 39.1442 15.5359 38.7698 15.2871V12.2814L40.994 12.4473L41.202 13.6287C41.2225 13.8153 41.2647 13.8983 41.4516 13.9396C41.7009 14.0228 42.2621 14.147 43.0522 14.147C44.1533 14.147 44.777 13.8364 44.777 13.0692C44.777 12.2401 43.9456 11.9911 42.8855 11.8045C41.1396 11.4937 38.8533 11.1208 38.8533 8.40509C38.8533 5.83444 41.0564 4.77689 43.4468 4.77689C44.8043 4.77689 46.1322 5.03216 46.8809 5.24954L46.9334 4.98458H52.1921V6.70509L51.028 6.82959L52.6909 12.6544H52.8365L54.6861 5.25381H57.8251L59.6129 12.6544H59.7374L61.2963 6.82959L60.1114 6.70509L60.3812 4.98458H64.7468V5.59569C64.4872 5.97674 64.259 6.37817 64.0641 6.79597L63.998 6.80879V6.80851ZM85.4909 7.32674C84.9507 7.32674 84.3066 7.78258 83.9946 8.05238V13.5455C83.9946 13.8772 84.0157 13.9393 84.3277 13.9604L86.3849 14.1259V15.7846H79.5878V14.1054L80.5237 13.9809C80.8143 13.9393 80.8559 13.8772 80.8559 13.5663V7.49227C80.8559 7.26435 80.7935 7.11934 80.5861 7.05723L79.5861 6.7068C79.5539 6.63899 79.5185 6.57347 79.4846 6.50737L79.6923 4.98429H83.3505L83.5997 6.64241H83.7245C84.4103 5.58543 85.3251 4.77689 86.6553 4.77689C87.1331 4.77689 88.0892 4.85979 88.4636 4.9635V8.73643L85.9695 8.65352L85.7616 7.55466C85.72 7.36805 85.6576 7.32674 85.4909 7.32674Z" fill="#4E5F89"/>
<path fill-rule="evenodd" clip-rule="evenodd" d="M71.7907 3.41882C75.5671 3.41882 78.6283 6.48008 78.6283 10.2564C78.6283 14.0328 75.5671 17.094 71.7907 17.094C68.0144 17.094 64.9531 14.0328 64.9531 10.2564C64.9531 6.48008 68.0144 3.41882 71.7907 3.41882Z" fill="#198CFF"/>
<path fill-rule="evenodd" clip-rule="evenodd" d="M63.2422 10.2564C63.2422 5.53585 67.0687 1.70935 71.7892 1.70935C76.5097 1.70935 80.3362 5.53585 80.3362 10.2564C80.3362 14.9772 76.5097 18.8034 71.7892 18.8034C67.0687 18.8034 63.2422 14.9772 63.2422 10.2564ZM64.9516 10.2564C64.9516 14.0327 68.0128 17.094 71.7892 17.094C75.5655 17.094 78.6268 14.0327 78.6268 10.2564C78.6268 6.48001 75.5655 3.41875 71.7892 3.41875C68.0128 3.41875 64.9516 6.48001 64.9516 10.2564Z" fill="white"/>
<path opacity="0.5" d="M62.9609 10.2563C62.9609 15.1341 66.9154 19.0883 71.7928 19.0883C76.6703 19.0883 80.6248 15.1341 80.6248 10.2563C80.6248 5.37885 76.6703 1.42444 71.7928 1.42444C66.9154 1.42444 62.9609 5.37885 62.9609 10.2563ZM63.2458 10.2563C63.2458 5.5364 67.072 1.70934 71.7928 1.70934C76.5136 1.70934 80.3399 5.5364 80.3399 10.2563C80.3399 14.9763 76.5136 18.8034 71.7928 18.8034C67.072 18.8034 63.2458 14.9763 63.2458 10.2563ZM65.2401 10.2558C65.2401 13.8746 68.174 16.8079 71.7928 16.8079C75.4117 16.8079 78.3456 13.8746 78.3456 10.2558C78.3456 6.63726 75.4117 3.70364 71.7928 3.70364C68.174 3.70364 65.2401 6.63726 65.2401 10.2558ZM64.9552 10.2563C64.9552 6.48056 68.0162 3.41874 71.7928 3.41874C75.5695 3.41874 78.6305 6.48056 78.6305 10.2563C78.6305 14.0321 75.5698 17.094 71.7928 17.094C68.0159 17.094 64.9552 14.0321 64.9552 10.2563Z" fill="black"/>
<path fill-rule="evenodd" clip-rule="evenodd" d="M74.7326 17.4011C77.3335 16.2925 79.1565 13.7182 79.1565 10.7185C79.1565 6.7065 75.8956 3.45407 71.8731 3.45407C67.8505 3.45407 64.5899 6.7065 64.5899 10.7185C64.5899 14.7185 67.8315 17.9626 71.8377 17.9817C71.8252 17.982 71.8132 17.9828 71.801 17.9828C67.5793 17.9828 64.1571 14.5695 64.1571 10.3589C64.1571 6.14838 67.5793 2.73499 71.801 2.73499C76.0226 2.73499 79.4448 6.14838 79.4448 10.3589C79.4448 13.5336 77.499 16.2538 74.7326 17.4011ZM71.6534 18.0683C76.3693 18.0683 80.1921 14.2555 80.1921 9.55236C80.1921 9.11362 80.1588 8.68285 80.0947 8.26205C80.2534 8.91105 80.3394 9.58855 80.3394 10.2863C80.3394 14.99 76.5164 18.8022 71.8007 18.8022C67.5243 18.8022 63.9827 15.6675 63.3594 11.5766C64.2705 15.3022 67.6372 18.0683 71.6534 18.0683Z" fill="black" fill-opacity="0.1"/>
<path fill-rule="evenodd" clip-rule="evenodd" d="M71.7923 5.12817C74.6245 5.12817 76.9205 7.42419 76.9205 10.2564C76.9205 13.0886 74.6245 15.3846 71.7923 15.3846C68.9601 15.3846 66.6641 13.0886 66.6641 10.2564C66.6641 7.42419 68.9601 5.12817 71.7923 5.12817Z" fill="#F2F2F2"/>
<path d="M71.7959 5.12816C68.9637 5.12816 66.6677 7.42417 66.6677 10.2564C66.6677 13.0886 68.9637 15.3846 71.7959 15.3846C74.6281 15.3846 76.9241 13.0886 76.9241 10.2564C76.9241 7.42417 74.6281 5.12816 71.7959 5.12816ZM71.7959 4.84326C74.7854 4.84326 77.209 7.26691 77.209 10.2564C77.209 13.2461 74.7854 15.6695 71.7959 15.6695C68.8065 15.6695 66.3828 13.2461 66.3828 10.2564C66.3828 7.26691 68.8065 4.84326 71.7959 4.84326Z" fill="black" fill-opacity="0.25"/>
<path fill-rule="evenodd" clip-rule="evenodd" d="M74.074 10.2564C74.074 10.8608 73.8339 11.4406 73.4065 11.868C72.9792 12.2954 72.3994 12.5356 71.7948 12.5356C71.1903 12.5356 70.6105 12.2954 70.1831 11.868C69.7558 11.4406 69.5156 10.8608 69.5156 10.2564C69.5156 9.6519 69.7558 9.07216 70.1831 8.64472C70.6105 8.21732 71.1903 7.97717 71.7948 7.97717C72.3994 7.97717 72.9792 8.21732 73.4065 8.64472C73.8339 9.07216 74.074 9.6519 74.074 10.2564Z" fill="black" fill-opacity="0.05"/>
<path d="M73.7891 10.2564C73.7891 9.72746 73.5789 9.22019 73.2051 8.8462C72.831 8.47219 72.3239 8.26207 71.7948 8.26207C71.2658 8.26207 70.7586 8.47219 70.3846 8.8462C70.0105 9.22019 69.8005 9.72746 69.8005 10.2564C69.8005 10.7853 70.0105 11.2926 70.3846 11.6665C70.7586 12.0406 71.2658 12.2507 71.7948 12.2507C72.3239 12.2507 72.831 12.0406 73.2051 11.6665C73.5789 11.2926 73.7891 10.7853 73.7891 10.2564ZM74.074 10.2564C74.074 10.8608 73.8339 11.4406 73.4065 11.868C72.9792 12.2954 72.3994 12.5356 71.7948 12.5356C71.1903 12.5356 70.6105 12.2954 70.1831 11.868C69.7558 11.4406 69.5156 10.8608 69.5156 10.2564C69.5156 9.6519 69.7558 9.07216 70.1831 8.64472C70.6105 8.21732 71.1903 7.97717 71.7948 7.97717C72.3994 7.97717 72.9792 8.21732 73.4065 8.64472C73.8339 9.07216 74.074 9.6519 74.074 10.2564Z" fill="black" fill-opacity="0.15"/>
<path d="M74.0699 10.2564C74.0699 9.65189 73.8297 9.07215 73.4023 8.64471C72.975 8.2173 72.3952 7.97716 71.7907 7.97716C71.1861 7.97716 70.6063 8.2173 70.179 8.64471C69.7516 9.07215 69.5115 9.65189 69.5115 10.2564C69.5115 10.8608 69.7516 11.4406 70.179 11.868C70.6063 12.2954 71.1861 12.5356 71.7907 12.5356C72.3952 12.5356 72.975 12.2954 73.4023 11.868C73.8297 11.4406 74.0699 10.8608 74.0699 10.2564ZM74.3548 10.2564C74.3548 10.9364 74.0847 11.5886 73.6038 12.0695C73.1229 12.5503 72.4707 12.8205 71.7907 12.8205C71.1106 12.8205 70.4585 12.5503 69.9776 12.0695C69.4966 11.5886 69.2266 10.9364 69.2266 10.2564C69.2266 9.57633 69.4966 8.92414 69.9776 8.44326C70.4585 7.9624 71.1106 7.69226 71.7907 7.69226C72.4707 7.69226 73.1229 7.9624 73.6038 8.44326C74.0847 8.92414 74.3548 9.57633 74.3548 10.2564Z" fill="white"/>
<path fill-rule="evenodd" clip-rule="evenodd" d="M70.6562 9.21872V6.83752H72.9355V10.8062L72.3657 11.335L72.9355 11.8637V14.2449H70.6562V10.2766L71.2261 9.7475L70.6562 9.21872Z" fill="white"/>
<path fill-rule="evenodd" clip-rule="evenodd" d="M70.6562 8.93381V6.55261H72.9355V10.5213L72.3657 11.05L72.9355 11.5788V13.96H70.6562V9.99164L71.2261 9.46258L70.6562 8.93381Z" fill="#4D4D4D"/>
<path fill-rule="evenodd" clip-rule="evenodd" d="M70.9375 9.17799V7.12244H72.6469V10.6432L72.2196 11.1313V11.4184L72.6469 11.9623V13.96H70.9375V10.433L71.3649 9.9552V9.66631L70.9375 9.17799Z" fill="#808080"/>
</g>
<defs>
<clipPath id="clip0_1_3661">
<rect width="100" height="19.0883" fill="white"/>
</clipPath>
</defs>
</svg>

<svg xmlns="http://www.w3.org/2000/svg" width="320" height="64" fill="none" viewBox="0 0 100 20"><g clip-path="url(#a)"><path fill="#4E5F89" fill-rule="evenodd" d="M5.54 2.971v10.616c0 .332.022.394.334.414l1.704.146v1.638H.282v-1.638l1.788-.145c.29-.021.332-.104.332-.415V6.428c0-.297-.224-.247-1.787.28l-.576-1.7L3.61 2.97h1.932Zm6.89.065h1.226c1.476 0 2.702.352 2.702 2.342 0 2.342-1.517 2.653-2.889 2.653h-1.04V3.036Zm1.517 7.213H12.43v3.317c0 .332.02.374.333.415l2.972.166v1.637H7.587v-1.637L8.897 14c.29-.04.332-.103.332-.414V2.994c0-.31-.042-.394-.333-.415l-1.31-.145V.776h7.047c3.846 0 5.01 2.032 5.01 4.415 0 3.607-2.183 5.058-5.696 5.058Zm11.643 2.8c-.478.351-1.185.746-1.892.746-.686 0-1.185-.311-1.185-1.14 0-.83.437-1.14 1.663-1.223l1.414-.104v1.72Zm9.555-3.96c1.641.373 3.491.954 3.491 3.38 0 2.528-2.057 3.565-4.697 3.565-1.71 0-3.38-.406-3.963-.668v.419H26.15l-.208-1.12-.104-.02c-.79.767-1.83 1.389-3.492 1.389-2.619 0-3.035-1.783-3.035-3.069 0-2.072 1.29-3.026 3.887-3.192l2.39-.166v-1.14c0-.974-.103-1.637-1.392-1.637-.997 0-1.517.145-1.517 1.388l-2.931-.249c0-2.798 2.556-3.192 4.469-3.192 3.16 0 4.427.85 4.427 3.752v5.038c0 .331.02.373.332.414l.846.14v-1.84l2.224.166.208 1.182c.02.186.063.27.25.31.25.084.81.208 1.6.208 1.102 0 1.725-.31 1.725-1.078 0-.829-.831-1.078-1.89-1.264-1.747-.311-4.033-.684-4.033-3.4 0-2.57 2.203-3.628 4.593-3.628 1.642 0 3.242.373 3.825.601v3.006L36.1 8.239l-.208-1.078c-.02-.166-.063-.248-.208-.29-.27-.083-.769-.166-1.33-.166-1.04 0-1.622.394-1.622 1.057 0 .85 1.144 1.037 2.412 1.327Zm60.405 3.607c-.561.477-1.33.891-2.037.891-1.31 0-1.892-1.12-1.892-3.13 0-1.845.603-3.275 2.141-3.275.603 0 1.268.27 1.788.622v4.892ZM99 14.002l.998.145v1.638H96.13l-.207-1.161-.146-.021c-.873.85-1.891 1.43-3.409 1.43-2.452 0-4.032-1.554-4.032-5.514 0-4.166 2.1-5.742 4.407-5.742 1.205 0 2.14.415 2.93.995V2.621c0-.207-.083-.352-.27-.414l-1.143-.394.229-1.68h4.178v13.475c0 .31.02.352.332.394ZM63.998 6.809c-.29.04-.415.145-.498.414l-2.557 8.561h-3.285l-1.62-6.944h-.125l-1.642 6.945h-3.742L47.91 7.203c-.083-.25-.187-.29-.436-.353l-.203-.043v1.577l-2.224-.145-.208-1.078c-.02-.166-.062-.248-.207-.29-.27-.083-.77-.166-1.33-.166-1.04 0-1.622.394-1.622 1.057 0 .85 1.143 1.037 2.411 1.327 1.642.373 3.492.954 3.492 3.38 0 2.528-2.057 3.565-4.697 3.565-1.892 0-3.742-.498-4.116-.747v-3.006l2.224.166.208 1.182c.02.186.063.27.25.31.249.084.81.208 1.6.208 1.101 0 1.725-.31 1.725-1.078 0-.829-.831-1.078-1.892-1.264-1.745-.311-4.032-.684-4.032-3.4 0-2.57 2.203-3.628 4.594-3.628 1.357 0 2.685.255 3.434.473l.052-.265h5.26v1.72l-1.165.125 1.663 5.824h.145l1.85-7.4h3.14l1.787 7.4h.124l1.56-5.824-1.186-.125.27-1.72h4.366v.61c-.26.382-.488.783-.683 1.201l-.066.013Zm21.493.518c-.54 0-1.184.456-1.496.725v5.494c0 .331.02.393.333.414l2.057.166v1.659h-6.797v-1.68l.936-.124c.29-.042.332-.104.332-.415V7.492c0-.228-.063-.373-.27-.435l-1-.35c-.032-.068-.067-.134-.101-.2l.207-1.523h3.659l.249 1.658h.125c.685-1.057 1.6-1.865 2.93-1.865.478 0 1.434.083 1.809.186v3.773l-2.495-.082-.207-1.1c-.042-.186-.104-.227-.271-.227Z" clip-rule="evenodd"/><path fill="#198CFF" fill-rule="evenodd" d="M71.79 3.419a6.838 6.838 0 1 1 0 13.675 6.838 6.838 0 0 1 0-13.675Z" clip-rule="evenodd"/><path fill="#fff" fill-rule="evenodd" d="M63.242 10.256a8.547 8.547 0 1 1 17.094 0 8.547 8.547 0 0 1-8.547 8.547 8.547 8.547 0 0 1-8.547-8.547Zm1.71 0a6.838 6.838 0 1 0 13.675 0 6.838 6.838 0 0 0-13.675 0Z" clip-rule="evenodd"/><path fill="#000" d="M62.96 10.256a8.832 8.832 0 1 0 17.665 0 8.832 8.832 0 0 0-17.664 0Zm.286 0a8.547 8.547 0 1 1 17.094 0 8.547 8.547 0 0 1-17.094 0Zm1.994 0a6.552 6.552 0 1 0 13.105 0 6.552 6.552 0 0 0-13.105 0Zm-.285 0a6.838 6.838 0 1 1 13.676 0 6.838 6.838 0 0 1-13.676 0Z" opacity=".5"/><path fill="#000" fill-opacity=".1" fill-rule="evenodd" d="M74.733 17.401a7.266 7.266 0 0 0 4.423-6.682c0-4.012-3.26-7.265-7.283-7.265-4.023 0-7.283 3.252-7.283 7.264 0 4 3.242 7.245 7.248 7.264H71.8c-4.222 0-7.644-3.412-7.644-7.623 0-4.21 3.422-7.624 7.644-7.624 4.222 0 7.644 3.413 7.644 7.624a7.626 7.626 0 0 1-4.712 7.042Zm-3.08.667c4.716 0 8.54-3.813 8.54-8.516 0-.438-.034-.87-.098-1.29a8.51 8.51 0 0 1 .244 2.024c0 4.704-3.823 8.516-8.538 8.516a8.533 8.533 0 0 1-8.442-7.225 8.536 8.536 0 0 0 8.294 6.491Z" clip-rule="evenodd"/><path fill="#F2F2F2" fill-rule="evenodd" d="M71.792 5.128a5.128 5.128 0 1 1 0 10.257 5.128 5.128 0 0 1 0-10.257Z" clip-rule="evenodd"/><path fill="#000" fill-opacity=".25" d="M71.796 5.128a5.128 5.128 0 1 0 0 10.257 5.128 5.128 0 0 0 0-10.257Zm0-.285a5.413 5.413 0 1 1 0 10.827 5.413 5.413 0 0 1 0-10.827Z"/><path fill="#000" fill-opacity=".05" fill-rule="evenodd" d="M74.074 10.256a2.28 2.28 0 1 1-4.559 0 2.28 2.28 0 0 1 4.559 0Z" clip-rule="evenodd"/><path fill="#000" fill-opacity=".15" d="M73.79 10.256a1.995 1.995 0 1 0-3.991 0 1.995 1.995 0 0 0 3.99 0Zm.284 0a2.28 2.28 0 1 1-4.559 0 2.28 2.28 0 0 1 4.559 0Z"/><path fill="#fff" d="M74.07 10.256a2.28 2.28 0 1 0-4.559 0 2.28 2.28 0 0 0 4.559 0Zm.285 0a2.564 2.564 0 1 1-5.128 0 2.564 2.564 0 0 1 5.128 0Z"/><path fill="#fff" fill-rule="evenodd" d="M70.656 9.219V6.838h2.28v3.968l-.57.529.57.529v2.38h-2.28v-3.967l.57-.53-.57-.528Z" clip-rule="evenodd"/><path fill="#4D4D4D" fill-rule="evenodd" d="M70.656 8.934V6.553h2.28v3.968l-.57.529.57.529v2.381h-2.28V9.992l.57-.53-.57-.528Z" clip-rule="evenodd"/><path fill="gray" fill-rule="evenodd" d="M70.938 9.178V7.122h1.709v3.521l-.427.488v.287l.427.544v1.998h-1.71v-3.527l.428-.478v-.289l-.427-.488Z" clip-rule="evenodd"/></g><defs><clipPath id="a"><path fill="#fff" d="M0 0h100v19.088H0z"/></clipPath></defs></svg>
